X:1
T:Engels Pols
T:(Totakt-pols, nr. EJ-24)
S:efter Erik Jensen
R:Totakt-pols
O:Boes, rhus amt, Danmark
N:Lt nr. 6 p CD:n "Totakt-pols" av ke Persson, Ethel Wieslander m fl. Till CD:n finns ett nothfte dr den har beteckningen EJ-24. Dr skriver man ven att andra reprisen pminner om den svenska barnvisan "Apan heter Jocko". Danmark|Fler ltar frn Danmark...
M:2/4
L:1/8
K:D
|: dd d(c1/2d1/2) | (ed) d2 | f(e1/2g1/2) g(f1/2g1/2) | a2 a2 | bg g(f1/2g1/2) | af f(e1/2f1/2) | gedc | d2 D2 :|
|: dfaf | (dB) B2 | geed | (cA) A2 | dd f(e1/2f1/2) | a2 a2 | bgec | d2 D2 :|



